symbols/web/no_stroller/materialsymbolssharp/no_stroller_wght100gradN25_24px.svg

<svg xmlns="http://www.w3.org/2000/svg" height="24" width="24"><path d="M7.275 19.8q-.5 0-.862-.35-.363-.35-.363-.85 0-.525.35-.875t.85-.35q.525 0 .875.35t.35.85q0 .5-.35.863-.35.362-.85.362Zm7.825-7.475-.65-.625V7.975l.2.075-1.775 2.075-.45-.475 3.2-3.75q.4-.475.863-.7.462-.225 1.037-.225.725 0 1.2.475t.475 1.2v.3h-.625v-.3q0-.45-.3-.75t-.75-.3q-.425 0-.775.175-.35.175-.625.525L15.1 7.525Zm-.65 2.1.65.65V16.4H6.675l4.075-4.75-8.525-8.525.475-.45 19.2 19.2-.45.475L11.2 12.1l-3.125 3.675h6.375Zm-.3 5.375q-.5 0-.862-.35-.363-.35-.363-.85 0-.525.35-.875t.875-.35q.5 0 .85.35t.35.85q0 .5-.362.863-.363.362-.838.362Zm-1.55-6.3Zm1.025-2.65ZM11.4 8.65l-.45-.45 1.975-2.3q-.5-.15-1-.225-.5-.075-1.025-.075-.525 0-1.088.087-.562.088-1.087.263l-.5-.475q.65-.25 1.337-.375.688-.125 1.338-.125.825 0 1.6.137.775.138 1.575.413Zm-.45-.45Z"/></svg>

<svg xmlns="http://www.w3.org/2000/svg" height="24" width="24"><path d="M7.275 19.8Q6.775 19.8 6.413 19.45Q6.05 19.1 6.05 18.6Q6.05 18.075 6.4 17.725Q6.75 17.375 7.25 17.375Q7.775 17.375 8.125 17.725Q8.475 18.075 8.475 18.575Q8.475 19.075 8.125 19.438Q7.775 19.8 7.275 19.8ZM14.4 11.625 13.75 11V9.1L12.875 10.125L12.425 9.65L15.825 5.7Q16.25 5.2 16.7 5.087Q17.15 4.975 17.525 4.975Q18.225 4.975 18.713 5.45Q19.2 5.925 19.2 6.6V6.95H18.575V6.6Q18.575 6.15 18.25 5.875Q17.925 5.6 17.525 5.6Q17.175 5.6 16.875 5.712Q16.575 5.825 16.375 6.025L14.4 8.35ZM8.075 15.775H14.125V15.025L11.2 12.1ZM11.425 8.65 10.95 8.2 12.875 5.875Q12.425 5.75 11.925 5.675Q11.425 5.6 10.8 5.6Q10.2 5.6 9.65 5.7Q9.1 5.8 8.725 5.95L8.225 5.475Q8.725 5.275 9.363 5.125Q10 4.975 10.8 4.975Q11.6 4.975 12.388 5.112Q13.175 5.25 14 5.625ZM21.45 22.35 14.75 15.65V16.4H6.675L10.75 11.625L2.225 3.125L2.7 2.675L21.9 21.875ZM14.15 19.8Q13.65 19.8 13.288 19.45Q12.925 19.1 12.925 18.6Q12.925 18.075 13.275 17.725Q13.625 17.375 14.15 17.375Q14.65 17.375 15 17.725Q15.35 18.075 15.35 18.575Q15.35 19.075 14.988 19.438Q14.625 19.8 14.15 19.8ZM13.275 10.525ZM10.95 8.2Q10.95 8.2 10.95 8.2Q10.95 8.2 10.95 8.2Q10.95 8.2 10.95 8.2Q10.95 8.2 10.95 8.2ZM12.65 13.55Z"/></svg>
